public/illustrations/_police.svg

<svg width="286" height="250" viewBox="0 0 286 250" fill="none" xmlns="http://www.w3.org/2000/svg">
<path d="M123.007 37.3917C121.407 36.1882 120.062 34.8149 118.957 33.1158C117.853 31.4168 117.428 29.4771 117.287 27.4949C116.876 24.6915 117.598 21.7323 119.283 19.4811C120.968 17.2299 123.446 15.5875 126.391 15.1627C130.298 14.4548 134.305 14.4548 138.27 15.1627C139.289 15.3043 140.195 15.6016 141.951 15.9131C142.531 14.9645 143.069 13.7469 143.792 12.7841C144.613 11.524 145.575 10.2355 146.552 9.0887C154.524 -0.0719137 163.047 -2.45058 173.652 2.60404C180.406 5.77556 186.82 9.57008 193.234 13.3646C195.442 14.7663 197.382 16.3379 199.35 18.0652C202.253 20.3589 204.419 23.488 205.495 26.9002C206.585 30.4682 206.684 34.1636 205.637 37.7457C204.815 41.0163 203.711 44.1737 202.423 47.2178C202.083 47.8408 201.885 48.4354 201.984 49.1433C202.083 49.8513 202.182 50.5451 202.55 51.0689C206.543 57.9359 209.219 65.5532 210.493 73.3829C211.626 79.2304 211.017 84.8938 209.842 90.6422C208.667 97.3958 206.203 104.05 202.621 109.997C198.104 117.374 192.016 123.688 184.668 128.332L181.524 130.357C184.554 131.49 187.117 132.41 189.694 133.472C192.285 134.534 194.706 135.468 197.141 136.544C199.577 137.62 202.21 138.965 205.58 140.48C206.245 139.093 207.038 137.691 207.859 136.431C210.493 132.906 213.381 132.056 217.36 133.911C225.94 137.819 233.968 142.958 241.274 148.905C244.219 151.482 244.587 154.002 242.945 157.527C241.869 159.977 240.651 162.44 239.448 165.046C240.283 165.923 240.991 166.83 241.812 167.566C260.742 186.722 274.575 209.178 284.883 234.012C285.123 234.692 285.392 235.513 285.633 236.193C287.021 240.851 284.444 244.801 279.474 245.098C274.929 245.325 270.2 245.297 265.641 245.382L238.386 245.891C229.395 246.047 220.404 246.203 211.413 246.358C202.423 246.514 193.134 246.571 184.144 246.727C175.153 246.882 165.723 246.953 156.449 247.151L129.477 247.619L47.6684 248.723L20.6963 249.19C16.4062 249.233 12.1726 249.558 7.98165 249.318C5.9428 249.034 3.97485 248.326 2.2475 247.279C1.32718 246.84 0.647457 246.075 0.364284 245.113C-0.0604761 244.178 -0.0603931 243.173 0.0953521 242.295C0.534271 240.369 1.12896 238.571 1.89353 236.886C13.4612 210.042 29.149 185.887 50.4011 165.64C50.8967 165.145 51.2648 164.663 51.6471 164.324C50.8825 160.996 50.0187 157.981 49.5514 154.752C49.0842 152.529 49.1692 150.094 50.1462 147.942C50.9815 145.818 52.5815 144.02 54.5637 142.873C62.1244 137.776 69.6993 132.821 78.4493 129.975C84.4526 127.964 86.6614 128.361 90.5125 133.245C91.3762 134.265 92.0983 135.298 93.146 136.587C103.638 131.929 114.596 128.63 125.895 126.563C111.496 115.052 103.567 100.751 102.958 82.6709C102.349 64.5904 109.358 49.6955 123.035 37.42L123.007 37.3917ZM146.836 164.706L143.905 164.267C137.293 163.078 130.723 162.171 124.238 160.812C117.145 159.269 112.855 155.305 115.729 146.455C115.913 145.719 116.225 144.955 116.409 144.218C116.989 142.279 117.428 140.353 118.108 138.102C113.223 137.946 109.244 140.098 105.28 141.387C102.576 142.491 99.8997 143.737 97.3936 145.238C95.8078 146.186 94.2929 147.546 92.693 148.353C83.1076 153.308 74.1027 159.34 65.7916 166.122C42.5572 185.505 26.0198 209.631 13.6451 236.886C13.4469 237.481 13.3903 238.061 13.1921 238.67L146.411 236.872C146.666 212.944 146.751 188.761 146.977 164.55L146.864 164.706H146.836ZM191.365 145.11C189.538 151.241 188.094 157.173 186.211 162.879C184.611 167.693 181.723 169.392 176.725 168.543C172.604 167.707 168.428 166.589 164.421 165.598C162.184 164.918 159.932 164.239 157.087 163.361C156.846 188.436 156.662 212.916 156.549 237.835C170.07 237.311 182.983 236.589 195.81 236.306C208.78 236.008 221.947 235.966 235.058 235.64C247.886 235.357 260.785 235.499 274.009 234.876C273.57 233.8 273.329 233.12 273.103 232.568C267.977 220.859 261.79 209.744 254.569 199.338C238.173 175.962 218.082 156.692 191.251 145.252L191.365 145.096V145.11ZM163.302 125.133C168.371 124.538 173.157 122.995 177.348 120.389C192.37 111.498 199.577 98.0047 200.228 80.7453C200.313 73.4395 198.685 66.0912 195.315 59.5641C194.451 57.5394 192.922 55.897 190.926 54.9059C186.961 53.1927 183.068 51.0406 178.905 49.9221C170.877 47.7983 162.736 45.9577 154.51 44.4285C149.356 43.4516 144.075 43.5082 138.935 42.5313C137.618 42.2906 136.174 42.2198 134.787 42.5596C133.399 42.8994 132.224 43.6498 131.204 44.5135C130.298 45.2214 129.406 45.9152 128.528 46.7647C114.71 60.0596 110.151 76.0305 115.389 94.4367C120.685 113.268 138.468 128.446 163.189 125.302L163.302 125.147V125.133ZM193.998 40.5774C194.38 39.2323 194.89 37.8731 195.4 36.3723C197.014 31.7 195.74 27.8771 191.86 24.7198C184.299 18.9431 176.045 14.2708 167.224 10.6886C165.539 9.92406 163.5 9.65503 161.702 10.0515C159.876 10.3205 158.163 11.2833 156.775 12.6283C155.034 14.4548 153.434 16.253 151.862 18.2068C152.924 18.6316 153.547 18.9714 154.142 19.1696C154.736 19.3678 155.487 19.5519 156.223 19.7218C158.602 15.3751 160.825 13.9026 163.699 15.0636C164.761 15.4884 165.582 16.2246 166.304 17.2582C167.89 19.3112 166.927 21.6049 166.474 23.3888L194.14 40.5632H193.998V40.5774ZM138.34 135.596C143.636 140.551 148.308 145.167 153.264 149.754L170.325 139.135C159.833 135.794 149.653 133.684 138.34 135.596ZM164.888 35.1972C164.548 34.8149 164.067 34.4609 163.727 34.0786C154.977 29.9018 145.661 26.8153 136.075 24.918C133.866 24.5216 131.728 24.5499 129.605 24.7056C129.18 24.7623 128.769 24.8331 128.528 25.1445C128.274 25.3286 127.905 25.81 127.806 26.1073C127.622 26.8436 128.443 27.594 128.854 28.3869C129.18 28.6276 129.491 28.8682 129.93 28.939C134.093 30.0576 138.171 31.4734 142.432 32.2805C148.294 33.2857 154.382 33.8379 160.357 34.56L165.03 35.1688H164.888V35.1972ZM60.7793 156.253L83.858 140.764C83.3341 140.127 82.428 139.829 81.72 139.787C81.0121 139.744 80.0351 140.027 79.398 140.551C73.8195 143.51 68.1135 146.611 62.7191 149.825C59.4201 151.737 59.4768 152.147 60.8077 156.395V156.253H60.7793ZM140.762 153.28L141.087 152.515L128.316 140.339C127.127 143.949 125.838 146.993 125.626 150.448C130.78 151.425 135.608 153.152 140.606 153.152L140.762 153.266V153.28ZM176.526 158.264C178.976 153.478 180.208 148.14 179.67 145.365L164.591 154.837L176.526 158.264ZM214.387 145.068L231.802 157.712L232.694 155.007C226.492 149.754 217.601 144.601 214.358 144.926V145.068H214.387Z" fill="#102185"/>
<path d="M107.914 215.095C99.3907 215.464 91.0088 215.959 82.6127 216.171C77.7705 216.299 75.6467 214.458 75.3777 209.63C74.9812 200.965 74.7263 192.272 74.5989 183.423C74.7121 182.262 74.8395 181.101 75.2501 180.039C75.5899 178.411 76.5245 176.995 77.8271 176.089C79.1014 175.041 80.772 174.658 82.3436 174.715C87.6248 174.673 92.9201 174.616 98.0455 174.446C102.336 174.404 106.47 174.375 110.774 174.46C114.937 174.574 116.891 176.159 117.216 180.393C117.669 186.481 117.698 192.626 117.882 198.898C118.009 201.744 117.995 204.604 117.953 207.322C117.854 211.627 116.395 213.411 112.218 214.161L108.013 214.77L107.914 215.067V215.095ZM85.501 206.473C93.2882 204.915 100.438 205.892 107.829 204.533C107.348 200.172 108.013 195.925 106.909 191.224C105.125 193.773 103.836 195.67 102.52 197.44C98.8385 202.693 95.0581 203.245 89.7911 199.422C88.3469 198.346 86.8887 197.128 84.9348 195.542C85.0622 199.394 85.2461 202.65 85.5151 206.473H85.501ZM94.8882 190.233L98.5412 184.839L89.6921 184.966L89.508 185.702L94.9023 190.36V190.219L94.8882 190.233Z" fill="#102185"/>
<path d="M221.72 207.677C219.526 214.289 215.207 218.055 208.383 218.324C201.133 218.65 198.245 213.496 195.852 207.833C193.105 207.663 190.387 207.62 187.768 207.281C186.762 207.281 185.87 206.983 185.106 206.658C184.327 206.205 183.548 205.737 182.855 204.973C182.175 204.208 181.764 203.415 181.51 202.594C181.255 201.773 181.24 200.768 181.099 199.791C181.17 196.35 181.382 192.881 181.609 189.412C181.963 185.929 183.577 184.259 186.989 184.061C191.095 183.749 195.243 183.721 199.236 183.721C209.105 183.721 219.002 183.862 228.757 184.032C234.93 184.145 237.394 186.354 238.116 192.4C238.399 194.368 238.668 196.18 238.81 198.162C239.022 202.566 236.983 205.298 232.651 206.063L221.72 207.649V207.677ZM191.067 197.511C193.629 197.426 195.626 197.426 197.749 197.256C202.011 197.072 204.263 198.743 205.268 202.75C205.424 203.868 205.877 204.944 206.174 206.049C206.613 207.125 207.222 208.328 208.595 207.989C209.671 207.55 210.577 206.842 211.158 205.907C211.512 205.426 211.554 204.704 211.611 204.123C212.446 200.003 213.706 198.814 217.883 198.063C220.828 197.639 223.745 197.072 226.534 196.534C227.214 196.294 227.879 195.911 228.375 195.416C225.302 194 196.334 193.462 191.336 194.481L190.783 197.568L191.067 197.525V197.511Z" fill="#102185"/>
<path d="M172.986 226.876C173.17 228.137 173.071 229.439 172.236 230.558C171.542 231.662 170.353 232.398 169.121 232.724C167.861 232.908 166.544 232.667 165.44 231.974C164.335 231.28 163.599 230.091 163.273 228.859C163.075 227.457 163.316 226.14 164.151 225.008C164.845 223.903 166.006 223.025 167.408 222.813C168.101 222.714 168.668 222.629 169.276 222.827C169.885 223.025 170.48 223.224 171.103 223.563C171.584 223.917 172.08 224.427 172.448 224.937C172.816 225.461 173.057 226.14 173.128 226.692L173.014 226.848L172.986 226.876Z" fill="#102185"/>
<path d="M173.086 185.943C173.171 186.51 173.27 187.203 173.072 187.812C172.874 188.407 172.675 189.016 172.307 189.497C171.953 189.979 171.443 190.474 170.905 190.701C170.382 191.069 169.688 191.168 169.121 191.239C168.555 191.309 167.833 191.281 167.238 191.083C166.644 190.885 166.021 190.545 165.539 190.191C165.058 189.837 164.704 189.313 164.336 188.789C164.109 188.251 163.869 187.572 163.798 187.005C163.642 185.887 164.18 184.655 164.888 183.706C165.61 182.744 166.672 182.163 167.946 182.121C169.065 181.965 170.268 182.361 171.231 183.083C172.194 183.805 172.774 184.867 172.944 185.986H173.086V185.943Z" fill="#102185"/>
<path d="M163.713 207.181C163.628 206.615 163.529 205.921 163.727 205.312C163.925 204.718 164.124 204.109 164.492 203.627C164.846 203.146 165.37 202.792 165.894 202.424C166.432 202.197 166.97 201.985 167.678 201.886C168.796 201.73 170 202.127 170.948 202.707C171.911 203.429 172.492 204.491 172.661 205.61C172.831 206.728 172.562 207.917 171.84 208.88C171.118 209.843 170.226 210.551 168.966 210.721C168.4 210.806 167.706 210.905 167.097 210.707C166.488 210.508 165.894 210.31 165.412 209.942C164.931 209.588 164.435 209.078 164.223 208.682C163.855 208.158 163.642 207.62 163.543 206.926L163.727 207.181H163.713Z" fill="#102185"/>
<path d="M132.168 77.9842C132.89 78.0267 134.192 78.1258 135.368 78.3807C138.596 78.9187 141.682 79.4708 144.755 80.023C145.774 80.1646 146.822 80.4336 147.742 80.8726C148.946 81.269 149.923 82.1327 150.503 83.1946C151.084 84.2565 151.268 85.5166 151.013 86.6918C150.758 87.8669 150.05 88.9713 149.016 89.6934C147.983 90.4155 146.737 90.7411 145.576 90.6137C140.465 89.9199 135.481 89.0704 130.454 87.9377C129.279 87.6829 128.175 86.9749 127.453 85.9414C126.731 84.9078 126.405 83.6618 126.533 82.5008C126.745 80.0372 128.642 78.3382 132.026 77.9842H132.168Z" fill="#102185"/>
<path d="M141.412 62.7775C141.61 64.1792 141.242 65.5243 140.379 66.5013C139.543 67.6198 138.34 68.2286 136.938 68.4268C135.678 68.6109 134.319 68.087 133.186 67.2517C132.053 66.4163 131.459 65.2128 131.402 63.797C131.218 62.5368 131.6 61.1918 132.436 60.0732C133.299 59.0963 134.474 58.3459 135.876 58.1477C137.136 57.9636 138.481 58.3459 139.6 59.1813C140.718 60.0166 141.327 61.2201 141.384 62.6359V62.7775H141.412Z" fill="#102185"/>
<path d="M158.389 66.4742C158.531 67.4511 158.389 68.4705 158.078 69.2351C157.639 70.1554 157.016 70.8208 156.237 71.3588C155.458 71.8969 154.496 72.1801 153.476 72.0385C152.471 72.0385 151.579 71.7411 150.772 71.1465C149.965 70.5518 149.427 69.7731 149.002 68.8245C148.719 67.8617 148.719 66.8564 148.875 65.9786C149.172 65.0724 149.611 64.1522 150.376 63.4725C151.14 62.7929 151.933 62.3823 152.91 62.2407C153.604 62.1416 154.17 62.0567 154.779 62.2549C155.388 62.4531 155.982 62.6513 156.464 63.0195C156.945 63.3734 157.441 63.8831 157.809 64.3928C158.177 64.9167 158.418 65.5963 158.347 66.1768L158.389 66.46V66.4742Z" fill="#102185"/>
</svg>

<svg xmlns="http://www.w3.org/2000/svg" width="286" height="250" fill="none" viewBox="0 0 286 250"><path fill="#102185" d="M123.007 37.392c-1.6-1.204-2.945-2.577-4.05-4.276-1.104-1.7-1.529-3.639-1.67-5.621-.411-2.803.311-5.763 1.996-8.014s4.163-3.894 7.108-4.318a33.5 33.5 0 0 1 11.879 0c1.019.141 1.925.439 3.681.75.58-.949 1.118-2.166 1.841-3.129a37 37 0 0 1 2.76-3.695c7.972-9.16 16.495-11.54 27.1-6.485 6.754 3.172 13.168 6.966 19.582 10.76 2.208 1.402 4.148 2.974 6.116 4.701 2.903 2.294 5.069 5.423 6.145 8.835 1.09 3.568 1.189 7.264.142 10.846-.822 3.27-1.926 6.428-3.214 9.472-.34.623-.538 1.217-.439 1.925s.198 1.402.566 1.926c3.993 6.867 6.669 14.484 7.943 22.314 1.133 5.847.524 11.51-.651 17.26a56.5 56.5 0 0 1-7.221 19.354c-4.517 7.377-10.605 13.691-17.953 18.335l-3.144 2.025c3.03 1.133 5.593 2.053 8.17 3.115 2.591 1.062 5.012 1.996 7.447 3.072s5.069 2.421 8.439 3.936a36 36 0 0 1 2.279-4.049c2.634-3.525 5.522-4.375 9.501-2.52 8.58 3.908 16.608 9.047 23.914 14.994 2.945 2.577 3.313 5.097 1.671 8.622-1.076 2.45-2.294 4.913-3.497 7.519.835.877 1.543 1.784 2.364 2.52 18.93 19.156 32.763 41.612 43.071 66.446.24.68.509 1.501.75 2.181 1.388 4.658-1.189 8.608-6.159 8.905-4.545.227-9.274.199-13.833.284l-27.255.509-26.973.467c-8.99.156-18.279.213-27.269.369-8.991.155-18.421.226-27.695.424l-26.972.468-81.809 1.104-26.972.467c-4.29.043-8.523.368-12.714.128a15.15 15.15 0 0 1-5.734-2.039c-.92-.439-1.6-1.204-1.884-2.166-.424-.935-.424-1.94-.269-2.818a28 28 0 0 1 1.799-5.409C13.46 210.042 29.149 185.887 50.4 165.64c.496-.495.864-.977 1.246-1.316-.764-3.328-1.628-6.343-2.096-9.572-.467-2.223-.382-4.658.595-6.81.835-2.124 2.435-3.922 4.418-5.069 7.56-5.097 15.135-10.052 23.885-12.898 6.004-2.011 8.212-1.614 12.064 3.27.863 1.02 1.585 2.053 2.633 3.342 10.492-4.658 21.45-7.957 32.749-10.024-14.399-11.511-22.328-25.812-22.937-43.892s6.4-32.976 20.077-45.251zm23.829 127.314-2.931-.439c-6.612-1.189-13.182-2.096-19.667-3.455-7.093-1.543-11.383-5.507-8.509-14.357.184-.736.496-1.5.68-2.237.58-1.939 1.019-3.865 1.699-6.116-4.885-.156-8.864 1.996-12.828 3.285-2.704 1.104-5.38 2.35-7.886 3.851-1.586.948-3.101 2.308-4.701 3.115-9.585 4.955-18.59 10.987-26.901 17.769-23.235 19.383-39.772 43.509-52.147 70.764-.198.595-.255 1.175-.453 1.784l133.219-1.798c.255-23.928.34-48.111.566-72.322l-.113.156zm44.529-19.596c-1.827 6.131-3.271 12.063-5.154 17.769-1.6 4.814-4.488 6.513-9.486 5.664-4.121-.836-8.297-1.954-12.304-2.945-2.237-.68-4.489-1.359-7.334-2.237-.241 25.075-.425 49.555-.538 74.474 13.521-.524 26.434-1.246 39.261-1.529 12.97-.298 26.137-.34 39.248-.666 12.828-.283 25.727-.141 38.951-.764-.439-1.076-.68-1.756-.906-2.308-5.126-11.709-11.313-22.824-18.534-33.23-16.396-23.376-36.487-42.646-63.318-54.086l.114-.156zm-28.063-19.977c5.069-.595 9.855-2.138 14.046-4.744 15.022-8.891 22.229-22.384 22.88-39.644.085-7.306-1.543-14.654-4.913-21.18a9.2 9.2 0 0 0-4.389-4.66c-3.965-1.712-7.858-3.864-12.021-4.983a334 334 0 0 0-24.395-5.493c-5.154-.977-10.435-.92-15.575-1.898-1.317-.24-2.761-.311-4.148.029-1.388.34-2.563 1.09-3.583 1.953-.906.708-1.798 1.402-2.676 2.252-13.818 13.295-18.377 29.266-13.139 47.672 5.296 18.831 23.079 34.009 47.8 30.865l.113-.155zm30.696-84.556c.382-1.345.892-2.704 1.402-4.205 1.614-4.672.34-8.495-3.54-11.652-7.561-5.777-15.815-10.45-24.636-14.031-1.685-.765-3.724-1.034-5.522-.637-1.826.268-3.539 1.231-4.927 2.576a87 87 0 0 0-4.913 5.579c1.062.425 1.685.764 2.28.963s1.345.382 2.081.552c2.379-4.347 4.602-5.82 7.476-4.658 1.062.424 1.883 1.16 2.605 2.194 1.586 2.053.623 4.347.17 6.13l27.666 17.175h-.142zm-55.658 95.019c5.296 4.955 9.968 9.571 14.924 14.158l17.061-10.619c-10.492-3.341-20.672-5.451-31.985-3.539m26.548-100.399c-.34-.382-.821-.736-1.161-1.118a117 117 0 0 0-27.652-9.161c-2.209-.396-4.347-.368-6.47-.212-.425.056-.836.127-1.077.439-.254.184-.623.665-.722.962-.184.737.637 1.487 1.048 2.28.326.24.637.481 1.076.552 4.163 1.119 8.241 2.534 12.502 3.342 5.862 1.005 11.95 1.557 17.925 2.279l4.673.609h-.142zM60.779 156.253l23.079-15.489c-.524-.637-1.43-.935-2.138-.977-.708-.043-1.685.24-2.322.764-5.578 2.959-11.284 6.06-16.679 9.274-3.299 1.912-3.242 2.322-1.911 6.57v-.142zm79.983-2.973.325-.765-12.771-12.176c-1.189 3.61-2.478 6.654-2.69 10.109 5.154.977 9.982 2.704 14.98 2.704l.156.114zm35.764 4.984c2.45-4.786 3.682-10.124 3.144-12.899l-15.079 9.472zm37.861-13.196 17.415 12.644.892-2.705c-6.202-5.253-15.093-10.406-18.336-10.081v.142z"/><path fill="#102185" d="M107.914 215.095c-8.523.369-16.905.864-25.301 1.076-4.843.128-6.966-1.713-7.235-6.541a835 835 0 0 1-.78-26.207c.114-1.161.242-2.322.652-3.384.34-1.628 1.275-3.044 2.577-3.95 1.274-1.048 2.945-1.431 4.517-1.374 5.28-.042 10.576-.099 15.702-.269 4.29-.042 8.424-.071 12.728.014 4.163.114 6.117 1.699 6.442 5.933.453 6.088.482 12.233.666 18.505.127 2.846.113 5.706.071 8.424-.099 4.305-1.558 6.089-5.735 6.839l-4.205.609-.099.297zm-22.413-8.622c7.787-1.558 14.937-.581 22.328-1.94-.481-4.361.184-8.608-.92-13.309-1.784 2.549-3.073 4.446-4.389 6.216-3.681 5.253-7.462 5.805-12.729 1.982-1.444-1.076-2.902-2.294-4.856-3.88.127 3.852.311 7.108.58 10.931zm9.387-16.24 3.653-5.394-8.849.127-.184.736 5.394 4.658v-.141zM221.72 207.677c-2.194 6.612-6.513 10.378-13.337 10.647-7.25.326-10.138-4.828-12.531-10.491-2.747-.17-5.465-.213-8.084-.552-1.006 0-1.898-.298-2.662-.623-.779-.453-1.558-.921-2.251-1.685a6.3 6.3 0 0 1-1.345-2.379c-.255-.821-.27-1.826-.411-2.803.071-3.441.283-6.91.51-10.379.354-3.483 1.968-5.153 5.38-5.351 4.106-.312 8.254-.34 12.247-.34 9.869 0 19.766.141 29.521.311 6.173.113 8.637 2.322 9.359 8.368.283 1.968.552 3.78.694 5.762.212 4.404-1.827 7.136-6.159 7.901l-10.931 1.586zm-30.653-10.166c2.562-.085 4.559-.085 6.682-.255 4.262-.184 6.514 1.487 7.519 5.494.156 1.118.609 2.194.906 3.299.439 1.076 1.048 2.279 2.421 1.94 1.076-.439 1.982-1.147 2.563-2.082.354-.481.396-1.203.453-1.784.835-4.12 2.095-5.309 6.272-6.06 2.945-.424 5.862-.991 8.651-1.529.68-.24 1.345-.623 1.841-1.118-3.073-1.416-32.041-1.954-37.039-.935l-.553 3.087.284-.043zM172.986 226.876c.184 1.261.085 2.563-.75 3.682-.694 1.104-1.883 1.84-3.115 2.166-1.26.184-2.577-.057-3.681-.75-1.105-.694-1.841-1.883-2.167-3.115-.198-1.402.043-2.719.878-3.851.694-1.105 1.855-1.983 3.257-2.195.693-.099 1.26-.184 1.868.014s1.204.397 1.827.736c.481.354.977.864 1.345 1.374.368.524.609 1.203.68 1.755l-.114.156zM173.086 185.943c.085.567.184 1.26-.014 1.869-.198.595-.397 1.204-.765 1.685-.354.482-.864.977-1.402 1.204-.523.368-1.217.467-1.784.538-.566.07-1.288.042-1.883-.156a6.5 6.5 0 0 1-1.699-.892c-.481-.354-.835-.878-1.203-1.402-.227-.538-.467-1.217-.538-1.784-.156-1.118.382-2.35 1.09-3.299a3.9 3.9 0 0 1 3.058-1.585c1.119-.156 2.322.24 3.285.962a4.45 4.45 0 0 1 1.713 2.903h.142zM163.713 207.181c-.085-.566-.184-1.26.014-1.869.198-.594.397-1.203.765-1.685.354-.481.878-.835 1.402-1.203.538-.227 1.076-.439 1.784-.538 1.118-.156 2.322.241 3.27.821a4.44 4.44 0 0 1 1.713 2.903 4.37 4.37 0 0 1-.821 3.27c-.722.963-1.614 1.671-2.874 1.841-.566.085-1.26.184-1.869-.014-.609-.199-1.203-.397-1.685-.765-.481-.354-.977-.864-1.189-1.26-.368-.524-.581-1.062-.68-1.756l.184.255zM132.168 77.984c.722.043 2.024.142 3.2.397 3.228.538 6.314 1.09 9.387 1.642 1.019.142 2.067.41 2.987.85a4.93 4.93 0 0 1 2.761 2.322 5.1 5.1 0 0 1 .51 3.497 4.99 4.99 0 0 1-1.997 3.001c-1.033.722-2.279 1.048-3.44.92-5.111-.693-10.095-1.543-15.122-2.675a4.98 4.98 0 0 1-3.001-1.997c-.722-1.033-1.048-2.28-.92-3.44.212-2.464 2.109-4.163 5.493-4.517zM141.412 62.778c.198 1.401-.17 2.746-1.033 3.723-.836 1.119-2.039 1.728-3.441 1.926-1.26.184-2.619-.34-3.752-1.175-1.133-.836-1.727-2.04-1.784-3.455-.184-1.26.198-2.605 1.034-3.724.863-.977 2.038-1.727 3.44-1.925 1.26-.184 2.605.198 3.724 1.033 1.118.836 1.727 2.04 1.784 3.455v.142zM158.389 66.474c.142.977 0 1.996-.311 2.761-.439.92-1.062 1.586-1.841 2.124s-1.741.821-2.761.68a4.43 4.43 0 0 1-2.704-.892c-.807-.595-1.345-1.374-1.77-2.323-.283-.962-.283-1.968-.127-2.845.297-.907.736-1.827 1.501-2.507s1.557-1.09 2.534-1.231c.694-.1 1.26-.184 1.869.014s1.203.396 1.685.764c.481.354.977.864 1.345 1.374.368.524.609 1.203.538 1.784l.042.283z"/></svg>
